icons/op-settings2-24.svg

<svg width="24" height="24" viewBox="0 0 24 24" fill="none" xmlns="http://www.w3.org/2000/svg">
<path d="M14.3937 13.4173H12.8504C12.7559 13.1339 12.6299 12.8504 12.4724 12.5984L13.5118 11.5906C13.7323 11.3386 13.7323 10.9606 13.5118 10.7087L13.0709 10.2992C12.8189 10.0472 12.4409 10.0472 12.189 10.2992L11.1811 11.3071C10.8976 11.1496 10.5827 11.0236 10.2677 10.9606V9.6063C10.2677 9.25984 9.98425 9.00787 9.6378 9.00787H9.03937C8.69291 9.00787 8.44094 9.25984 8.44094 9.6063V10.9606C8.06299 11.0551 7.74803 11.1811 7.43307 11.3701L6.58268 10.4882C6.33071 10.2677 5.95276 10.2677 5.70079 10.4882L5.29134 10.9291C5.03937 11.1811 5.03937 11.5591 5.29134 11.811L6.17323 12.6929C5.98425 13.0079 5.82677 13.3543 5.76378 13.7323H4.59843C4.28346 13.7323 4 14.0157 4 14.3622V14.9606C4 15.3071 4.28346 15.5591 4.59843 15.5591H5.82677C5.95276 15.937 6.11024 16.2835 6.33071 16.5984L5.51181 17.4173C5.25984 17.6693 5.25984 18.0472 5.51181 18.2992L5.92126 18.7087C6.17323 18.9606 6.55118 18.9606 6.80315 18.7087L7.71654 17.7953C8.0315 17.9528 8.37795 18.0472 8.72441 18.1102V19.4016C8.72441 19.7165 9.00787 20 9.35433 20H9.95276C10.2992 20 10.5827 19.7165 10.5827 19.4016V17.9528C10.8661 17.8583 11.1811 17.7008 11.4331 17.5118L12.4094 18.4882C12.6614 18.7402 13.0394 18.7402 13.2913 18.4882L13.7008 18.0787C13.9528 17.8268 13.9528 17.4488 13.7008 17.1969L12.6299 16.126C12.7559 15.8425 12.8819 15.5591 12.9449 15.2756H14.3937C14.7402 15.2756 14.9921 14.9921 14.9921 14.6457V14.0472C14.9921 13.7008 14.7402 13.4173 14.3937 13.4173ZM9.35433 16.0315C8.50394 16.0315 7.81102 15.3386 7.81102 14.4882C7.81102 13.6693 8.50394 12.9764 9.35433 12.9764C10.2047 12.9764 10.8661 13.6693 10.8661 14.4882C10.8661 15.3386 10.2047 16.0315 9.35433 16.0315ZM19.622 6.80315H18.6457C18.5827 6.61417 18.4882 6.45669 18.3937 6.29921L19.0551 5.6378C19.2126 5.48031 19.2126 5.22835 19.0551 5.10236L18.7717 4.8189C18.6142 4.66142 18.3622 4.66142 18.2362 4.8189L17.5748 5.48031C17.3858 5.38583 17.1969 5.29134 16.9764 5.22835V4.37795C16.9764 4.15748 16.8189 4 16.5984 4H16.2205C16 4 15.811 4.15748 15.811 4.37795V5.22835C15.5906 5.29134 15.4016 5.38583 15.1811 5.51181L14.6457 4.94488C14.4882 4.7874 14.2362 4.7874 14.0787 4.94488L13.8268 5.22835C13.6693 5.38583 13.6693 5.6378 13.8268 5.76378L14.3937 6.33071C14.2677 6.55118 14.1732 6.77165 14.1102 7.02362H13.3858C13.1654 7.02362 13.0079 7.1811 13.0079 7.40157V7.77953C13.0079 8 13.1654 8.18898 13.3858 8.18898H14.1732C14.2362 8.40945 14.3622 8.62992 14.4882 8.8189L13.9528 9.35433C13.7953 9.51181 13.7953 9.76378 13.9528 9.88976L14.2362 10.1732C14.3937 10.3307 14.6457 10.3307 14.7717 10.1732L15.3701 9.5748C15.5591 9.70079 15.7795 9.76378 16.0315 9.79528V10.6142C16.0315 10.8346 16.189 10.9921 16.4094 10.9921H16.7874C17.0079 10.9921 17.1969 10.8346 17.1969 10.6142V9.70079C17.3858 9.6378 17.5748 9.54331 17.7323 9.41732L18.3622 10.0472C18.5197 10.2047 18.7717 10.2047 18.8976 10.0472L19.1811 9.76378C19.3386 9.6063 19.3386 9.35433 19.1811 9.22835L18.4882 8.53543C18.5827 8.34646 18.6457 8.18898 18.6772 7.9685H19.622C19.8425 7.9685 20 7.81102 20 7.59055V7.2126C20 6.99213 19.8425 6.80315 19.622 6.80315ZM16.4094 8.47244C15.874 8.47244 15.4331 8.0315 15.4331 7.49606C15.4331 6.96063 15.874 6.51969 16.4094 6.51969C16.9449 6.51969 17.3858 6.96063 17.3858 7.49606C17.3858 8.0315 16.9449 8.47244 16.4094 8.47244Z" fill="black"/>
</svg>

<svg xmlns="http://www.w3.org/2000/svg" width="24" height="24" viewBox="0 0 24 24"><path d="M14.394 13.417H12.85a3.828 3.828 0 0 0-.378-.819l1.04-1.007a.672.672 0 0 0 0-.882l-.441-.41a.609.609 0 0 0-.882 0l-1.008 1.008a3.22 3.22 0 0 0-.913-.346V9.606c0-.346-.284-.598-.63-.598h-.599a.579.579 0 0 0-.598.598v1.355a3.55 3.55 0 0 0-1.008.409l-.85-.882a.672.672 0 0 0-.882 0l-.41.441a.609.609 0 0 0 0 .882l.882.882a2.988 2.988 0 0 0-.409 1.039H4.598c-.315 0-.598.284-.598.63v.599c0 .346.283.598.598.598h1.229c.126.378.283.725.504 1.039l-.819.819a.609.609 0 0 0 0 .882l.409.41c.252.252.63.252.882 0l.914-.914c.314.158.661.252 1.007.315v1.292c0 .314.284.598.63.598h.599c.346 0 .63-.284.63-.598v-1.449c.283-.095.598-.252.85-.441l.976.976c.252.252.63.252.882 0l.41-.409a.609.609 0 0 0 0-.882l-1.071-1.071c.126-.284.252-.567.315-.85h1.449c.346 0 .598-.284.598-.63v-.599c0-.346-.252-.63-.598-.63Zm-5.04 2.615c-.85 0-1.543-.693-1.543-1.544 0-.819.693-1.512 1.543-1.512.851 0 1.512.693 1.512 1.512 0 .851-.661 1.544-1.512 1.544Zm10.268-9.229h-.976c-.063-.189-.158-.346-.252-.504l.661-.661c.158-.158.158-.41 0-.536l-.283-.283c-.158-.158-.41-.158-.536 0l-.661.661c-.189-.094-.378-.189-.599-.252v-.85A.363.363 0 0 0 16.598 4h-.377c-.221 0-.41.157-.41.378v.85a2.8 2.8 0 0 0-.63.284l-.535-.567a.398.398 0 0 0-.567 0l-.252.283c-.158.158-.158.41 0 .536l.567.567c-.126.22-.221.441-.284.693h-.724a.363.363 0 0 0-.378.378v.378c0 .22.157.409.378.409h.787c.063.22.189.441.315.63l-.535.535c-.158.158-.158.41 0 .536l.283.283c.158.158.41.158.536 0l.598-.598c.189.126.41.189.662.22v.819c0 .221.157.378.377.378h.378c.221 0 .41-.157.41-.378v-.913c.189-.063.378-.158.535-.284l.63.63c.158.158.41.158.536 0l.283-.283c.158-.158.158-.41 0-.536l-.693-.693c.095-.189.158-.346.189-.567h.945A.363.363 0 0 0 20 7.591v-.378c0-.221-.157-.41-.378-.41Zm-3.213 1.669a.981.981 0 0 1-.976-.976c0-.535.441-.976.976-.976.536 0 .977.441.977.976a.981.981 0 0 1-.977.976Z"/></svg>
